X: 40920
T: Trip To Ballyshannon, The
R: reel
M: 4/4
K: Dmajor
|:D2FE FDDF|AdBd AFDF|G2BG AFED|B,EED EFDB,|
D2FE FDDF|AdBd AFDF|G2BG AdBd|AFED B,EED:|
|:Dffe d~B3|AFFE DEFA|Beed efde|fdef edBd|
Affe d~B3|AFFE DEFA|B2dB AFED|B,EED EFDB,:|

